public/static/icons/log_out.svg

<svg width="40" height="40" viewBox="0 0 40 40" fill="none" xmlns="http://www.w3.org/2000/svg">
<g clip-path="url(#clip0_210_132)">
<path d="M25 21.6667C24.0783 21.6667 23.3333 22.4133 23.3333 23.3333V30C23.3333 30.9183 22.5867 31.6667 21.6667 31.6667H16.6667V6.66667C16.6667 5.24333 15.76 3.97167 14.3967 3.49833L13.9033 3.33333H21.6667C22.5867 3.33333 23.3333 4.08167 23.3333 5V10C23.3333 10.92 24.0783 11.6667 25 11.6667C25.9217 11.6667 26.6667 10.92 26.6667 10V5C26.6667 2.24333 24.4233 0 21.6667 0H3.75C3.68667 0 3.63333 0.0283333 3.57167 0.0366667C3.49167 0.03 3.415 0 3.33333 0C1.495 0 0 1.495 0 3.33333V33.3333C0 34.7567 0.906667 36.0283 2.27 36.5017L12.3 39.845C12.64 39.95 12.9783 40 13.3333 40C15.1717 40 16.6667 38.505 16.6667 36.6667V35H21.6667C24.4233 35 26.6667 32.7567 26.6667 30V23.3333C26.6667 22.4133 25.9217 21.6667 25 21.6667Z" fill="url(#paint0_linear_210_132)"/>
<path d="M39.5118 15.4883L32.8451 8.82166C32.3684 8.34499 31.6518 8.20166 31.0284 8.45999C30.4068 8.71832 30.0001 9.32666 30.0001 9.99999V15H23.3334C22.4134 15 21.6667 15.7467 21.6667 16.6667C21.6667 17.5867 22.4134 18.3333 23.3334 18.3333H30.0001V23.3333C30.0001 24.0067 30.4068 24.615 31.0284 24.8733C31.6518 25.1317 32.3684 24.9883 32.8451 24.5117L39.5118 17.845C40.1634 17.1933 40.1634 16.14 39.5118 15.4883Z" fill="url(#paint1_linear_210_132)"/>
</g>
<defs>
<linearGradient id="paint0_linear_210_132" x1="13.3333" y1="0" x2="13.3333" y2="40" gradientUnits="userSpaceOnUse">
<stop stop-color="#67BC45"/>
<stop offset="1" stop-color="#096A09"/>
</linearGradient>
<linearGradient id="paint1_linear_210_132" x1="30.8336" y1="8.33301" x2="30.8336" y2="25.0003" gradientUnits="userSpaceOnUse">
<stop stop-color="#67BC45"/>
<stop offset="1" stop-color="#096A09"/>
</linearGradient>
<clipPath id="clip0_210_132">
<rect width="40" height="40" fill="white"/>
</clipPath>
</defs>
</svg>

<svg width="40" height="40" fill="none" xmlns="http://www.w3.org/2000/svg"><g clip-path="url(#a)"><path d="M25 21.667c-.922 0-1.667.746-1.667 1.666V30c0 .918-.746 1.667-1.666 1.667h-5v-25a3.36 3.36 0 0 0-2.27-3.169l-.494-.165h7.764c.92 0 1.666.749 1.666 1.667v5a1.666 1.666 0 1 0 3.334 0V5c0-2.757-2.244-5-5-5H3.75c-.063 0-.117.028-.178.037C3.492.03 3.415 0 3.333 0A3.337 3.337 0 0 0 0 3.333v30a3.36 3.36 0 0 0 2.27 3.169l10.03 3.343c.34.105.678.155 1.033.155a3.337 3.337 0 0 0 3.334-3.333V35h5c2.756 0 5-2.243 5-5v-6.667c0-.92-.745-1.666-1.667-1.666Z" fill="url(#b)"/><path d="m39.512 15.488-6.667-6.666A1.667 1.667 0 0 0 30 10v5h-6.667a1.667 1.667 0 0 0 0 3.333H30v5a1.667 1.667 0 0 0 2.845 1.178l6.667-6.666a1.665 1.665 0 0 0 0-2.357Z" fill="url(#c)"/></g><defs><linearGradient id="b" x1="13.333" y1="0" x2="13.333" y2="40" gradientUnits="userSpaceOnUse"><stop stop-color="#67BC45"/><stop offset="1" stop-color="#096A09"/></linearGradient><linearGradient id="c" x1="30.834" y1="8.333" x2="30.834" y2="25" gradientUnits="userSpaceOnUse"><stop stop-color="#67BC45"/><stop offset="1" stop-color="#096A09"/></linearGradient><clipPath id="a"><path fill="#fff" d="M0 0h40v40H0z"/></clipPath></defs></svg>
